!!!COM: Palestrina, Giovanni Perluigi da
!!!OPR: Dum esset summus pontifex
!!!OTL: Gloria
**kern	**kern	**kern	**kern
*Ibass	*Itenor	*Icalto	*Icant
!Bassus	!Tenor	!Altus	!Cantus
*clefF4	*clefGv2	*clefG2	*clefG2
*k[]	*k[]	*k[]	*k[]
*A:aeo	*A:aeo	*A:aeo	*A:aeo
*M4/2	*M4/2	*M4/2	*M4/2
=1	=1	=1	=1
1.A	1.c#	1.e	1.a
2A	2c#	2e	2a
=2	=2	=2	=2
1D	1d	1f	1a
1E	1B	1e	1g
=3	=3	=3	=3
2A	2A	1e	1cc
2A	1a	.	.
4D	.	2f	1dd
4E	.	.	.
4F	[2f	[2a	.
4G	.	.	.
=4	=4	=4	=4
4A	2f]	2a]	1cc
4B	.	.	.
1c	2e	2g	.
.	1d	[1g	1dd
2B	.	.	.
=5	=5	=5	=5
2c	1.g	2g]	1ee
2c	.	2cc	.
2G	.	2b	2.dd
[2d	2f	[2a	.
.	.	.	4dd
=6	=6	=6	=6
2d]	2d	2a]	2ff
2c#	2e	2a	2ee
1d	1f	1a	1dd
=7	=7	=7	=7
2A	2e	1a	1cc#
2A	2a	.	.
2c	2a	2r	2r
2B	2g#	2d	2dd
=8	=8	=8	=8
1A	1a	2f	2dd
.	.	2e	2cc#
2r	2r	1d	2.dd
2d	2d	.	.
.	.	.	8cc
.	.	.	8b
=9	=9	=9	=9
2d	2f	1r	1a
2.c	2.e	.	.
.	.	2r	2r
4c	4e	.	.
2B	2d	2d	2dd
=10	=10	=10	=10
1A	1a	2f	2dd
.	.	2.e	2.cc
1G	2r	.	.
.	.	4e	4cc
.	[2d	2d	2b
=11	=11	=11	=11
1A	2d]	2f	2a
.	2c#	2e	1a
1D	1d	1f	.
.	.	.	2a
=12	=12	=12	=12
1E	1B	2e	2g#
.	.	2e	2g#
2F	1A	2.c	2a
2A	.	.	2cc
.	.	8B	.
.	.	8A	.
=13	=13	=13	=13
2G	2r	2B	2dd
2E	2c	2G	2ee
2D	2d	2A	2ff
2C#	2e	2A	[2ee
=14	=14	=14	=14
4D	1f	1a	2ee]
4E	.	.	.
4F	.	.	1dd
4G	.	.	.
1A	1e	1a	.
.	.	.	2cc#
=15	=15	=15	=15
2r	2d	2f#	2dd
1d	1f#	1a	1dd
2d	2f#	2a	2dd
=16	=16	=16	=16
2G	2g	2b	2dd
2.c	2.g	2.cc	2.ee
4c	4g	4cc	4ee
2d	2f	2a	2dd
=17	=17	=17	=17
2.A	0e	1a	0cc
4B	.	.	.
1c	.	[1g	.
=18	=18	=18	=18
0G	2d	1g]	1b
.	1g	.	.
.	.	2.b	2.dd
.	2g	.	.
.	.	4b	4dd
=19	=19	=19	=19
0r	2f	2a	2ff
.	2c	2cc	2ee
.	2g	2b	2dd
.	2a	2a	2cc
=20	=20	=20	=20
0r	2g	2b	2dd
.	4c	2.cc	2.ee
.	4B	.	.
.	4A	.	.
.	4B	4b	4dd
.	4c	[2a	2cc
.	4d	.	.
=21	=21	=21	=21
1r	1e	2a]	1b
.	.	2g#	.
2r	1A	1a	1a
[2A	.	.	.
=22	=22	=22	=22
4A]	2.e	0r	0r
4A	.	.	.
2c	.	.	.
.	4e	.	.
2B	2g	.	.
2A	2f	.	.
=23	=23	=23	=23
2c	2e	0r	0r
2B	2g	.	.
4A	2f	.	.
4B	.	.	.
4c	4e	.	.
4d	4f	.	.
=24	=24	=24	=24
4e	4g	0r	0r
4d	4f	.	.
1d	4f	.	.
.	8e	.	.
.	8d	.	.
.	1e	.	.
2c#	.	.	.
=25	=25	=25	=25
2d	2f	2r	2r
1G	1g	1b	1dd
2G	2g	2b	2dd
=26	=26	=26	=26
1c	1g	1cc	1ee
2G	2g	2b	2dd
2A	2c	2a	2cc
=27	=27	=27	=27
2F	2c	2a	2dd
2G	2B	2g	2dd
2A	1c	2e	[1cc
[2F	.	[2a	.
=28	=28	=28	=28
4F]	2r	4a]	1cc]
4F	.	4a	.
2F	2.c	2a	.
2E	.	2g	1r
.	4c	.	.
2F	2c	2a	.
=29	=29	=29	=29
2G	2B	2d	0r
2E	2c	2e	.
2D	[1d	[1f	.
2D	.	.	.
=30	=30	=30	=30
1A	2d]	2f]	2r
.	2c	2e	1a
2r	2B	1d	.
[2d	2B	.	2g#
=31	=31	=31	=31
2d]	1A	1e	1a
2c#	.	.	.
2.d	2r	2.f	2a
.	[2d	.	[2ff
8c	.	4g	.
8B-	.	.	.
=32	=32	=32	=32
1A	2d]	1a	2ff]
.	2c#	.	2ee
1B-	1d	2f	1dd
.	.	2g	.
=33	=33	=33	=33
0A	2e	1a	2cc#
.	2.c#	.	2.ee
.	.	2r	.
.	4c#	.	4ee
.	2c#	[2a	2ee
=34	=34	=34	=34
0r	1d	4a]	1ff
.	.	4a	.
.	.	2a	.
.	2A	1cc	2ee
.	2a	.	2cc
=35	=35	=35	=35
0r	2.g	2b	2dd
.	.	2g	2.ee
.	4e	.	.
.	2f	2a	.
.	.	.	4dd
.	2g	2b-	[2dd
=36	=36	=36	=36
1A	1e	2a	2dd]
.	.	1a	2cc#
2F	1d	.	1dd
2G	.	2g	.
=37	=37	=37	=37
1A	2r	2f	2r
.	1a	2.e	2a
1B-	.	.	2f
.	.	4d	.
.	2g	[2d	2g
=38	=38	=38	=38
2A	2f	2d]	1a
2A	2.e	2c	.
2G	.	2.g	1b-
.	4d	.	.
2G	[2d	.	.
.	.	4f	.
=39	=39	=39	=39
1A	2d]	1e	1a
.	2c#	.	.
1D	1d	2r	2r
.	.	2d	2dd
=40	=40	=40	=40
0r	0r	2f	1dd
.	.	2g	.
.	.	2a	2cc
.	.	2b-	2dd
=41	=41	=41	=41
2r	0r	2g	2ee
2D	.	1a	1ff
2F	.	.	.
2G	.	4g	4ee
.	.	4f	4dd
=42	=42	=42	=42
2A	1r	2e	2cc
2B-	.	2d	1dd
2G	2r	1e	.
2A	[2a	.	2cc#
=43	=43	=43	=43
2D	2a]	1d	2dd
1d	2f	.	1ff
.	2d	2r	.
2c	[2e	[2a	2ee
=44	=44	=44	=44
2A	4e]	2a]	2cc
.	4f	.	.
2B	2d	2g	2dd
2.c	4c	2e	1ee
.	4A	.	.
.	[2a	2c	.
8B	.	.	.
8A	.	.	.
=45	=45	=45	=45
1B	2a]	1d	1dd
.	2g#	.	.
1A	1a	2e	1cc#
.	.	2e	.
=46	=46	=46	=46
0r	1d	2.f	2r
.	.	.	2a
.	.	4g	.
.	1r	2a	2cc
.	.	2b	2dd
=47	=47	=47	=47
0r	1r	2cc	2ee
.	.	2a	2ff
.	2r	2b	2dd
.	2A	[2cc	[2ee
=48	=48	=48	=48
0r	2c	2cc]	2ee]
.	2d	4b	4dd
.	.	4a	4cc
.	2e	2g	2b
.	2f	[2a	2a
=49	=49	=49	=49
1r	2d	2a]	1b
.	2e	2g#	.
2r	2A	2a	[1cc
[2F	[2a	[2f	.
=50	=50	=50	=50
2F]	2a]	2f]	2cc]
2E	2g	2g	2cc
1F	1f	1a	1cc
=51	=51	=51	=51
2.c	2.e	2.g	2.cc
4c	4e	4g	4cc
2A	2e	2a	2cc
2F	2a	2cc	2ff
=52	=52	=52	=52
2c	2g	2cc	2ee
2G	2g	2b-	1dd
1A	1e	1a	.
.	.	.	2cc#
=53	=53	=53	=53
1D	2f#	2a	1dd
.	2f#	2a	.
1r	1g	1b-	2r
.	.	.	2dd
=54	=54	=54	=54
0r	2d	2a	1ff
.	2d	2f	.
.	2e	2g	2ee
.	2f	2a	2cc
=55	=55	=55	=55
0r	2d	2f	2dd
.	4c	2.cc	2ee
.	4B	.	.
.	4A	.	2cc
.	4G	4b	.
.	2F	2a	[2ff
=56	=56	=56	=56
1r	1c	1g	2ff]
.	.	.	2ee
2r	2r	[1a	2ff
[2F	[2f	.	[2cc
=57	=57	=57	=57
2F]	2f]	2a]	2cc]
2F	2f	2a	2cc
2D	2f	2a	2dd
2D	2f	2a	2dd
=58	=58	=58	=58
0F	1f	1a	2.cc
.	.	.	4b
.	2c	4f	1a
.	.	4g	.
.	[2f	4a	.
.	.	4b	.
=59	=59	=59	=59
2C	2f]	1cc	0g
1c	2e	.	.
.	2c	1r	.
2B	2d	.	.
=60	=60	=60	=60
2G	2e	0r	0r
2A	2f	.	.
2B	4g	.	.
.	4f	.	.
2c	4e	.	.
.	4d	.	.
=61	=61	=61	=61
2.A	4c	1r	1r
.	4d	.	.
.	1e	.	.
4G	.	.	.
1F	.	2r	2r
.	2d	2a	2a
=62	=62	=62	=62
1E	1e	2a	2cc
.	.	2g#	2b
1r	1r	2a	2cc
.	.	2b	2dd
=63	=63	=63	=63
1A	1r	2.cc	0ee
.	.	8b	.
.	.	8a	.
1c	2r	1g	.
.	2e	.	.
=64	=64	=64	=64
2c	1g	0r	1r
2B	.	.	.
2c	2g	.	2r
2d	2f	.	[2dd
=65	=65	=65	=65
1e	2g	2r	4dd]
.	.	.	8cc#
.	.	.	8b
.	2g	2.g	2cc#
1d	1a	.	1dd
.	.	8f#	.
.	.	8e	.
.	.	2f#	.
=66	=66	=66	=66
1c	2r	2.g	1ee
.	1g	.	.
.	.	4a	.
[1d	.	2b	[1dd
.	4f#	[2a	.
.	4e	.	.
=67	=67	=67	=67
0d]	2f#	2a]	0dd]
.	2g	1g	.
.	1a	.	.
.	.	2f#	.
=68	=68	=68	=68
1G	2g	0g	0b
.	2d	.	.
2r	4e	.	.
.	4f	.	.
2G	4g	.	.
.	4e	.	.
=69	=69	=69	=69
4A	2f	1r	0r
4B	.	.	.
4c	2e	.	.
4A	.	.	.
2B	2d	2r	.
[2c	2e	2g	.
=70	=70	=70	=70
4c]	1c	2g	2r
4B	.	.	.
2A	.	2f#	2cc
2G	1d	1g	2cc
2G	.	.	2b
=71	=71	=71	=71
1F	2r	2.a	0cc
.	2f	.	.
.	.	4g	.
1r	2f	4a	.
.	.	4b	.
.	2e	[2cc	.
=72	=72	=72	=72
0r	2f	2cc]	1.dd
.	1g	4b	.
.	.	4a	.
.	.	2b	.
.	2a	2a	2cc
=73	=73	=73	=73
0r	2e	2g	2b
.	2f	1a	2a
.	1e	.	1b
.	.	2g#	.
=74	=74	=74	=74
1F	1A	1.a	2a
.	.	.	2cc
2F	2r	.	2cc
2E	2c	2g	2ee
=75	=75	=75	=75
2F	2c	2r	1dd
2G	2B	2g	.
1A	1c	2g	2r
.	.	2f#	[2cc
=76	=76	=76	=76
1G	1.d	2g	2cc]
.	.	2g	2b
1A	.	2f	1a
.	2c	[2e	.
=77	=77	=77	=77
2E	2B	2e]	2g#
2F	2A	2d	1a
1E	1B	1e	.
.	.	.	2g#
=78	=78	=78	=78
0A	0A	0e	0a
==	==	==	==
*-	*-	*-	*-
!!!CDT: 1525/^1526/-1594/2/2
!!!OCY: Italia
!!!AGN: Mass (Paraphrase)
!!!AST: renaissance, vocal
!!!ASW: Antiphon
!!!PWK: Masses, Book 8
!!!RNB: Cadence finals: D
!!!YOR: Le Opere Complete, v. 24, p. 32
!!!YOO: Rome, Italy: Fratelli Scalera
!!!END: 1992//
!!!EED: John Miller
!!!YEC: Copyright 2000, John Miller
!!!YEN: United States of America
!!!YEM: Rights to all derivative electronic formats reserved.
!!!YEM: Refer to licensing agreement for further details.
!!!YEM: This file must be accompanied by the licensing agreement.
!!!YEM: A copy of the licensing agreement may be found at http://www.music-cog.ohio-state.edu/HumdrumDatabases/Palestrina/license.txt
!!!EMD: converted to Humdrum by Bret Aarden
